src/assets/image/block7/Arrow-decor.svg

<svg width="16" height="76" viewBox="0 0 16 76" fill="none" xmlns="http://www.w3.org/2000/svg">
<path d="M7.64644 75.3536C7.84171 75.5488 8.15829 75.5488 8.35355 75.3536L11.5355 72.1716C11.7308 71.9763 11.7308 71.6597 11.5355 71.4645C11.3403 71.2692 11.0237 71.2692 10.8284 71.4645L8 74.2929L5.17157 71.4645C4.97631 71.2692 4.65973 71.2692 4.46446 71.4645C4.2692 71.6597 4.2692 71.9763 4.46446 72.1716L7.64644 75.3536ZM7.5 -2.18557e-08L7.5 2.34375L8.5 2.34375L8.5 2.18557e-08L7.5 -2.18557e-08ZM7.5 7.03125L7.5 11.7187L8.5 11.7188L8.5 7.03125L7.5 7.03125ZM7.5 16.4062L7.5 21.0937L8.5 21.0938L8.5 16.4063L7.5 16.4062ZM7.5 25.7812L7.5 30.4687L8.5 30.4688L8.5 25.7813L7.5 25.7812ZM7.5 35.1562L7.5 39.8437L8.5 39.8438L8.5 35.1563L7.5 35.1562ZM7.5 44.5312L7.5 49.2187L8.5 49.2188L8.5 44.5313L7.5 44.5312ZM7.5 53.9062L7.5 58.5937L8.5 58.5938L8.5 53.9063L7.5 53.9062ZM7.5 63.2812L7.5 67.9687L8.5 67.9688L8.5 63.2813L7.5 63.2812ZM7.5 72.6562L7.5 75L8.5 75L8.5 72.6563L7.5 72.6562ZM7.29289 75.7071C7.68341 76.0976 8.31658 76.0976 8.7071 75.7071L15.0711 69.3431C15.4616 68.9526 15.4616 68.3195 15.0711 67.9289C14.6805 67.5384 14.0474 67.5384 13.6569 67.9289L8 73.5858L2.34314 67.9289C1.95262 67.5384 1.31945 67.5384 0.928929 67.9289C0.538405 68.3195 0.538405 68.9526 0.928929 69.3431L7.29289 75.7071ZM7 -4.37114e-08L7 2.34375L9 2.34375L9 4.37114e-08L7 -4.37114e-08ZM7 7.03125L7 11.7187L9 11.7188L9 7.03125L7 7.03125ZM7 16.4062L7 21.0937L9 21.0938L9 16.4063L7 16.4062ZM7 25.7812L7 30.4687L9 30.4688L9 25.7813L7 25.7812ZM7 35.1562L7 39.8437L9 39.8438L9 35.1563L7 35.1562ZM7 44.5312L7 49.2187L9 49.2188L9 44.5313L7 44.5312ZM7 53.9062L7 58.5937L9 58.5938L9 53.9063L7 53.9062ZM7 63.2812L7 67.9687L9 67.9688L9 63.2813L7 63.2812ZM7 72.6562L7 75L9 75L9 72.6563L7 72.6562Z" fill="#696FE6"/>
</svg>

<svg width="16" height="76" fill="none" xmlns="http://www.w3.org/2000/svg"><path d="M7.646 75.354a.5.5 0 0 0 .708 0l3.182-3.182a.5.5 0 1 0-.708-.707L8 74.293l-2.828-2.829a.5.5 0 1 0-.708.708l3.182 3.182ZM7.5 0v2.344h1V0h-1Zm0 7.031v4.688h1V7.03h-1Zm0 9.375v4.688h1v-4.688h-1Zm0 9.375v4.688h1V25.78h-1Zm0 9.375v4.688h1v-4.688h-1Zm0 9.375v4.688h1V44.53h-1Zm0 9.375v4.688h1v-4.688h-1Zm0 9.375v4.688h1V63.28h-1Zm0 9.375V75h1v-2.344h-1Zm-.207 3.051a1 1 0 0 0 1.414 0l6.364-6.364a1 1 0 0 0-1.414-1.414L8 73.586l-5.657-5.657A1 1 0 0 0 .93 69.343l6.364 6.364ZM7 0v2.344h2V0H7Zm0 7.031v4.688h2V7.03H7Zm0 9.375v4.688h2v-4.688H7Zm0 9.375v4.688h2V25.78H7Zm0 9.375v4.688h2v-4.688H7Zm0 9.375v4.688h2V44.53H7Zm0 9.375v4.688h2v-4.688H7Zm0 9.375v4.688h2V63.28H7Zm0 9.375V75h2v-2.344H7Z" fill="#696FE6"/></svg>
